assets/icons/icon-chevron__down/web/icon-chevron__down.svg

<?xml version="1.0" encoding="UTF-8" standalone="no"?>
<svg width="48px" height="48px" viewBox="0 0 48 48" version="1.1" xmlns="http://www.w3.org/2000/svg" xmlns:xlink="http://www.w3.org/1999/xlink">
    <!-- Generator: Sketch 45.2 (43514) - http://www.bohemiancoding.com/sketch -->
    <title>icon-chevron__down</title>
    <desc>Created with Sketch.</desc>
    <defs></defs>
    <g id="Symbols" stroke="none" stroke-width="1" fill="none" fill-rule="evenodd">
        <g id="icon-chevron__down" fill="#2D2D2D">
            <path d="M24,27.1238714 L16.6742689,20.260039 C16.2731903,19.8842491 15.6435696,19.9065002 15.2686945,20.3104157 C14.8912059,20.7171472 14.9153239,21.3466532 15.3167262,21.7227464 L23.2505832,29.1563614 C23.256514,29.1630967 23.2625511,29.1697751 23.2686945,29.1763944 C23.4655451,29.3884944 23.7326393,29.4953541 24,29.4946024 C24.2673607,29.4953541 24.5344549,29.3884944 24.7313055,29.1763944 C24.7374489,29.1697751 24.743486,29.1630967 24.7494168,29.1563614 L32.6832738,21.7227464 C33.0846761,21.3466532 33.1087941,20.7171472 32.7313055,20.3104157 C32.3564304,19.9065002 31.7268097,19.8842491 31.3257311,20.260039 L24,27.1238714 Z"></path>
        </g>
    </g>
</svg>

<svg width="48" height="48" viewBox="0 0 48 48" xmlns="http://www.w3.org/2000/svg"><title>icon-chevron__down</title><path d="M24 27.124l-7.326-6.864a.991.991 0 0 0-1.405.05 1 1 0 0 0 .048 1.413l7.934 7.433.018.02a.991.991 0 0 0 .731.319.991.991 0 0 0 .75-.339l7.933-7.433a1 1 0 0 0 .048-1.413.991.991 0 0 0-1.405-.05L24 27.124z" fill="#2D2D2D" fill-rule="evenodd"/></svg>
